Pictures/pomodoro-logo.svg

<svg width="50" height="50" viewBox="0 0 50 50" fill="none" xmlns="http://www.w3.org/2000/svg">
<g id="Group 3 Copy 3">
<rect id="Rectangle" width="50" height="50" rx="15" fill="#4722C6"/>
<g id="pomodoro 2">
<path id="pomodoro" fill-rule="evenodd" clip-rule="evenodd" d="M29.2187 27.2028C29.0254 27.2809 28.8152 27.32 28.5883 27.32C28.2641 27.32 27.974 27.2412 27.7181 27.0837C27.4622 26.9262 27.2613 26.7104 27.1154 26.4363C26.9696 26.1621 26.8966 25.85 26.8966 25.5C26.8966 25.15 26.9696 24.8379 27.1154 24.5638C27.2613 24.2896 27.4622 24.0738 27.7181 23.9162C27.974 23.7587 28.2641 23.68 28.5883 23.68C28.806 23.68 29.0086 23.7167 29.1962 23.7902C29.3837 23.8637 29.5505 23.9658 29.6964 24.0965V22H30.6968V27.25H29.7519L29.7276 26.872C29.5817 27.0143 29.4121 27.1246 29.2187 27.2028ZM9.00041 26.9035V29H8V23.75H8.94483L8.96915 24.128C9.11504 23.9857 9.28525 23.8754 9.47977 23.7972C9.6743 23.7191 9.88387 23.68 10.1085 23.68C10.435 23.68 10.7257 23.7587 10.9804 23.9162C11.2351 24.0738 11.4354 24.2896 11.5813 24.5638C11.7272 24.8379 11.8002 25.15 11.8002 25.5C11.8002 25.85 11.7272 26.1621 11.5813 26.4362C11.4354 26.7104 11.2351 26.9262 10.9804 27.0837C10.7257 27.2413 10.435 27.32 10.1085 27.32C9.89082 27.32 9.68819 27.2832 9.50061 27.2098C9.31304 27.1363 9.1463 27.0342 9.00041 26.9035ZM9.25051 26.1755C9.41725 26.3552 9.62798 26.445 9.88271 26.445C10.1374 26.445 10.3482 26.3552 10.5149 26.1755C10.6817 25.9958 10.765 25.7707 10.765 25.5C10.765 25.2293 10.6817 25.0042 10.5149 24.8245C10.3482 24.6448 10.1374 24.555 9.88271 24.555C9.62798 24.555 9.41725 24.6448 9.25051 24.8245C9.08378 25.0042 9.00041 25.2293 9.00041 25.5C9.00041 25.7707 9.08378 25.9958 9.25051 26.1755ZM14.0719 27.32C14.4286 27.32 14.7458 27.2413 15.0237 27.0837C15.3016 26.9262 15.521 26.7104 15.682 26.4362C15.8429 26.1621 15.9234 25.85 15.9234 25.5C15.9234 25.15 15.8429 24.8379 15.682 24.5638C15.521 24.2896 15.3016 24.0738 15.0237 23.9162C14.7458 23.7587 14.4286 23.68 14.0719 23.68C13.7153 23.68 13.3975 23.7587 13.1184 23.9162C12.8394 24.0738 12.6194 24.2896 12.4584 24.5638C12.2975 24.8379 12.217 25.15 12.217 25.5C12.217 25.85 12.2975 26.1621 12.4584 26.4362C12.6194 26.7104 12.8394 26.9262 13.1184 27.0837C13.3975 27.2413 13.7153 27.32 14.0719 27.32ZM13.4397 26.1755C13.6065 26.3552 13.8172 26.445 14.0719 26.445C14.3267 26.445 14.5374 26.3552 14.7041 26.1755C14.8709 25.9958 14.9542 25.7707 14.9542 25.5C14.9542 25.2293 14.8709 25.0042 14.7041 24.8245C14.5374 24.6448 14.3267 24.555 14.0719 24.555C13.8172 24.555 13.6065 24.6448 13.4397 24.8245C13.273 25.0042 13.1896 25.2293 13.1896 25.5C13.1896 25.7707 13.273 25.9958 13.4397 26.1755ZM17.5838 27.25V25.3915C17.5838 25.1138 17.6475 24.905 17.7748 24.765C17.9022 24.625 18.0562 24.555 18.2368 24.555C18.4151 24.555 18.5674 24.6227 18.6936 24.758C18.8198 24.8933 18.8829 25.0963 18.8829 25.367V27.25H19.8833V25.3915C19.8833 25.1138 19.947 24.905 20.0744 24.765C20.2017 24.625 20.3557 24.555 20.5364 24.555C20.7147 24.555 20.8669 24.6227 20.9932 24.758C21.1194 24.8933 21.1825 25.0963 21.1825 25.367V27.25H22.1829V25.367C22.1829 24.8373 22.0659 24.4237 21.832 24.1263C21.5981 23.8287 21.2705 23.68 20.849 23.68C20.5827 23.68 20.3511 23.7395 20.1543 23.8585C19.9574 23.9775 19.8011 24.1478 19.6853 24.3695C19.463 23.9098 19.0844 23.68 18.5494 23.68C18.1303 23.68 17.798 23.827 17.5525 24.121L17.5282 23.75H16.5834V27.25H17.5838ZM25.5801 27.0837C25.3022 27.2413 24.9849 27.32 24.6283 27.32C24.2717 27.32 23.9539 27.2413 23.6748 27.0837C23.3958 26.9262 23.1758 26.7104 23.0148 26.4362C22.8539 26.1621 22.7734 25.85 22.7734 25.5C22.7734 25.15 22.8539 24.8379 23.0148 24.5638C23.1758 24.2896 23.3958 24.0738 23.6748 23.9162C23.9539 23.7587 24.2717 23.68 24.6283 23.68C24.9849 23.68 25.3022 23.7587 25.5801 23.9162C25.858 24.0738 26.0774 24.2896 26.2384 24.5638C26.3993 24.8379 26.4798 25.15 26.4798 25.5C26.4798 25.85 26.3993 26.1621 26.2384 26.4362C26.0774 26.7104 25.858 26.9262 25.5801 27.0837ZM24.6283 26.445C24.3736 26.445 24.1629 26.3552 23.9961 26.1755C23.8294 25.9958 23.746 25.7707 23.746 25.5C23.746 25.2293 23.8294 25.0042 23.9961 24.8245C24.1629 24.6448 24.3736 24.555 24.6283 24.555C24.8831 24.555 25.0938 24.6448 25.2605 24.8245C25.4273 25.0042 25.5106 25.2293 25.5106 25.5C25.5106 25.7707 25.4273 25.9958 25.2605 26.1755C25.0938 26.3552 24.8831 26.445 24.6283 26.445ZM28.8141 26.445C28.5593 26.445 28.3486 26.3552 28.1819 26.1755C28.0151 25.9958 27.9318 25.7707 27.9318 25.5C27.9318 25.2293 28.0151 25.0042 28.1819 24.8245C28.3486 24.6448 28.5593 24.555 28.8141 24.555C29.0688 24.555 29.2795 24.6448 29.4463 24.8245C29.613 25.0042 29.6964 25.2293 29.6964 25.5C29.6964 25.7707 29.613 25.9958 29.4463 26.1755C29.2795 26.3552 29.0688 26.445 28.8141 26.445ZM34.1635 27.0837C33.8856 27.2413 33.5683 27.32 33.2117 27.32C32.8551 27.32 32.5372 27.2413 32.2582 27.0837C31.9791 26.9262 31.7591 26.7104 31.5982 26.4362C31.4372 26.1621 31.3568 25.85 31.3568 25.5C31.3568 25.15 31.4372 24.8379 31.5982 24.5638C31.7591 24.2896 31.9791 24.0738 32.2582 23.9162C32.5372 23.7587 32.8551 23.68 33.2117 23.68C33.5683 23.68 33.8856 23.7587 34.1635 23.9162C34.4414 24.0738 34.6608 24.2896 34.8217 24.5638C34.9827 24.8379 35.0631 25.15 35.0631 25.5C35.0631 25.85 34.9827 26.1621 34.8217 26.4362C34.6608 26.7104 34.4414 26.9262 34.1635 27.0837ZM33.2117 26.445C32.957 26.445 32.7462 26.3552 32.5795 26.1755C32.4128 25.9958 32.3294 25.7707 32.3294 25.5C32.3294 25.2293 32.4128 25.0042 32.5795 24.8245C32.7462 24.6448 32.957 24.555 33.2117 24.555C33.4664 24.555 33.6772 24.6448 33.8439 24.8245C34.0106 25.0042 34.094 25.2293 34.094 25.5C34.094 25.7707 34.0106 25.9958 33.8439 26.1755C33.6772 26.3552 33.4664 26.445 33.2117 26.445ZM36.7235 25.7065V27.25H35.7231V23.75H36.5985L36.6471 24.2505C36.8995 23.8702 37.2469 23.68 37.6892 23.68C37.8397 23.68 37.9949 23.7033 38.1547 23.75L38.0157 24.6215C37.8814 24.5772 37.7494 24.555 37.6197 24.555C37.3511 24.555 37.1346 24.6547 36.9702 24.8542C36.8057 25.0538 36.7235 25.3378 36.7235 25.7065ZM40.1485 27.32C40.5052 27.32 40.8224 27.2413 41.1003 27.0837C41.3782 26.9262 41.5976 26.7104 41.7586 26.4362C41.9195 26.1621 42 25.85 42 25.5C42 25.15 41.9195 24.8379 41.7586 24.5638C41.5976 24.2896 41.3782 24.0738 41.1003 23.9162C40.8224 23.7587 40.5052 23.68 40.1485 23.68C39.7919 23.68 39.4741 23.7587 39.195 23.9162C38.916 24.0738 38.696 24.2896 38.535 24.5638C38.3741 24.8379 38.2936 25.15 38.2936 25.5C38.2936 25.85 38.3741 26.1621 38.535 26.4362C38.696 26.7104 38.916 26.9262 39.195 27.0837C39.4741 27.2413 39.7919 27.32 40.1485 27.32ZM39.5163 26.1755C39.6831 26.3552 39.8938 26.445 40.1485 26.445C40.4033 26.445 40.614 26.3552 40.7808 26.1755C40.9475 25.9958 41.0309 25.7707 41.0309 25.5C41.0309 25.2293 40.9475 25.0042 40.7808 24.8245C40.614 24.6448 40.4033 24.555 40.1485 24.555C39.8938 24.555 39.6831 24.6448 39.5163 24.8245C39.3496 25.0042 39.2662 25.2293 39.2662 25.5C39.2662 25.7707 39.3496 25.9958 39.5163 26.1755Z" fill="#D7E0FF"/>
</g>
</g>
</svg>

<svg xmlns="http://www.w3.org/2000/svg" width="50" height="50" fill="none"><rect width="50" height="50" fill="#4722C6" rx="15"/><path fill="#D7E0FF" fill-rule="evenodd" d="M29.219 27.203a1.667 1.667 0 0 1-.63.117 1.626 1.626 0 0 1-1.474-.884 1.963 1.963 0 0 1-.218-.936c0-.35.073-.662.218-.936a1.626 1.626 0 0 1 1.473-.884 1.652 1.652 0 0 1 1.108.416V22h1v5.25h-.944l-.024-.378a1.557 1.557 0 0 1-.51.33ZM9 26.903V29H8v-5.25h.945l.024.378c.146-.142.316-.253.51-.33.195-.079.405-.118.63-.118a1.624 1.624 0 0 1 1.472.884c.146.274.22.586.22.936 0 .35-.074.662-.22.936-.146.274-.346.49-.6.648a1.623 1.623 0 0 1-.873.236A1.654 1.654 0 0 1 9 26.904Zm.25-.727c.167.18.378.269.633.269.254 0 .465-.09.632-.27a.954.954 0 0 0 .25-.675.954.954 0 0 0-.25-.675.825.825 0 0 0-.632-.27.825.825 0 0 0-.632.27.955.955 0 0 0-.25.675c0 .27.083.496.25.675Zm4.822 1.144c.357 0 .674-.079.952-.236.278-.158.497-.374.658-.648.16-.274.241-.586.241-.936 0-.35-.08-.662-.241-.936a1.753 1.753 0 0 0-.658-.648 1.896 1.896 0 0 0-.952-.236c-.357 0-.674.079-.954.236a1.75 1.75 0 0 0-.66.648c-.16.274-.241.586-.241.936 0 .35.08.662.241.936.161.274.381.49.66.648.28.157.597.236.954.236Zm-.632-1.145c.167.18.377.27.632.27s.465-.09.632-.27a.954.954 0 0 0 .25-.675.954.954 0 0 0-.25-.675.825.825 0 0 0-.632-.27.825.825 0 0 0-.632.27.955.955 0 0 0-.25.675c0 .27.083.496.25.675Zm4.144 1.075v-1.858c0-.278.064-.487.19-.627a.602.602 0 0 1 .463-.21c.178 0 .33.068.457.203.126.135.189.338.189.609v1.883h1v-1.858c0-.278.064-.487.191-.627a.602.602 0 0 1 .462-.21c.179 0 .33.068.457.203.126.135.19.338.19.609v1.883h1v-1.883c0-.53-.117-.943-.351-1.24-.234-.298-.562-.447-.983-.447-.266 0-.498.06-.695.178-.197.12-.353.29-.469.511-.222-.46-.6-.689-1.136-.689-.419 0-.751.147-.997.441l-.024-.371h-.945v3.5h1Zm7.996-.166a1.895 1.895 0 0 1-.952.236c-.356 0-.674-.079-.953-.236a1.748 1.748 0 0 1-.66-.648 1.815 1.815 0 0 1-.242-.936c0-.35.08-.662.242-.936a1.75 1.75 0 0 1 .66-.648c.279-.157.597-.236.953-.236.357 0 .674.079.952.236.278.158.497.374.658.648.161.274.242.586.242.936 0 .35-.08.662-.242.936-.16.274-.38.49-.658.648Zm-.952-.639a.825.825 0 0 1-.632-.27.955.955 0 0 1-.25-.675c0-.27.083-.496.25-.675a.825.825 0 0 1 .632-.27c.255 0 .466.09.633.27.166.18.25.404.25.675 0 .27-.084.496-.25.675a.825.825 0 0 1-.633.27Zm4.186 0a.825.825 0 0 1-.632-.27.954.954 0 0 1-.25-.675c0-.27.083-.496.25-.675a.825.825 0 0 1 .632-.27c.255 0 .465.09.632.27.167.18.25.404.25.675 0 .27-.083.496-.25.675a.825.825 0 0 1-.632.27Zm5.35.639a1.895 1.895 0 0 1-.952.236c-.357 0-.675-.079-.954-.236-.279-.158-.499-.374-.66-.648a1.814 1.814 0 0 1-.241-.936c0-.35.08-.662.241-.936.161-.274.381-.49.66-.648.28-.157.597-.236.954-.236.356 0 .674.079.951.236.278.158.498.374.659.648.16.274.241.586.241.936 0 .35-.08.662-.241.936-.161.274-.38.49-.659.648Zm-.952-.639a.825.825 0 0 1-.633-.27.955.955 0 0 1-.25-.675c0-.27.084-.496.25-.675a.825.825 0 0 1 .633-.27c.254 0 .465.09.632.27.167.18.25.404.25.675 0 .27-.083.496-.25.675a.825.825 0 0 1-.632.27Zm3.511-.739v1.544h-1v-3.5h.876l.048.5c.253-.38.6-.57 1.042-.57.15 0 .306.023.466.07l-.14.872a1.26 1.26 0 0 0-.395-.067.8.8 0 0 0-.65.3c-.164.199-.246.483-.246.851Zm3.425 1.614c.357 0 .674-.079.952-.236.278-.158.498-.374.659-.648.16-.274.241-.586.241-.936 0-.35-.08-.662-.241-.936a1.753 1.753 0 0 0-.659-.648 1.896 1.896 0 0 0-.952-.236c-.356 0-.674.079-.953.236a1.75 1.75 0 0 0-.66.648c-.16.274-.241.586-.241.936 0 .35.08.662.241.936.161.274.381.49.66.648.28.157.597.236.953.236Zm-.632-1.145c.167.18.378.27.633.27.254 0 .465-.09.632-.27a.955.955 0 0 0 .25-.675.955.955 0 0 0-.25-.675.825.825 0 0 0-.633-.27.825.825 0 0 0-.632.27.955.955 0 0 0-.25.675c0 .27.084.496.25.675Z" clip-rule="evenodd"/></svg>
